X:1
T:Title
%%score { ( 1 4 ) | ( 2 3 ) }
L:1/8
M:6/8
K:Eb
V:1 treble nm="Grand Piano"
V:4 treble 
V:2 bass 
V:3 bass 
V:1
 z3 z2[Q:1/4=74] [Ec] | [Ec][CE][Ec] BEB | [CA]C[=B,F] .[E,CE]2 [A,_DF]/[EG]/ | %3
 [A,EA][EB][Ec] [DB][DF][DB] |[M:13/16] B/-B/-B/-B/-B/-B-<B z/ z/ z |[M:3/4] [Ec][CE] [Ec]B EB | %6
[M:5/8] [CA]C[=B,F] [CE]2 |[M:1/8] [CA]/[_DB]/ |[M:13/16] [Ec][F_d][Ec][DB][DF]3/2[_DG] | %9
[M:5/8] [CA]- [CA]3 z |[M:1/8] [Ec] |[M:3/4] [Ec][Ec] [Ec] [=Ec]2 [EG]/[GB]/ | AA G F2 A | %13
 [B,FB][B,FB] [B,EG][B,EG] [G,E][A,DF] | [G,E]4 z [Ec] | [Ec][CE] [Ec]B EB | %16
 [CA]C [=B,F] [CE]2 [CA]/[_DB]/ | [Ec][F_d] [Ec][DB] [DF][_DG] |[M:5/8] [CA]-[CA]- [CA]3 | %19
[M:1/8] [Ec] |[M:3/4] [Ec][Ec] [Ec] [=Ec]2 [EG]/[GB]/ | AA G F2 A | %22
 [B,FB][B,FB] [B,EG][B,EG] [G,E][A,DF] | [G,E]4 z [Ec] | [Ec][CE] [Ec]B EB | %25
 [CA]C [=B,F] [CE]2 [CA]/[_DB]/ | [Ec][F_d] [Ec][DB] [DF][_DG] |[M:5/8] [CA]-[CA]- [CA]3 |] %28
V:2
 z3 z2 [A,,A,] | [A,,A,][A,,A,][A,,A,] [E,G,_D][E,G,D][E,G,D] | [A,,E,][A,,E,][A,,D,] z .A,>B, | %3
 C,[B,,G,][A,,A,] [B,,F,][B,,B,][B,,A,] |[M:13/16] [E,G,E]-<[E,G,E][F,A,][G,_D]3/2 z [A,,A,] | %5
[M:3/4] [A,,A,][A,,A,] [A,,A,][E,G,_D] [E,G,D][_D,G,D] |[M:5/8] [A,,E,][A,,E,][A,,D,] [A,,E,]2 | %7
[M:1/8] [A,,A,] |[M:13/16] [A,,A,][A,,A,][A,,A,][B,,F,][B,,A,]3/2[E,B,] | %9
[M:5/8] [A,,A,]- [A,,A,]3 z |[M:1/8] [A,,A,] |[M:3/4] [A,,A,][A,,A,] [A,,A,] [C,G,]2 [C,C]/[C,C]/ | %12
 [F,CF][F,CF] [F,B,=E] [F,A,]2 [F,CF] | _D,D, E,B,, B,,B,, | E,4 z [A,,A,] | %15
 [A,,A,][A,,A,] [A,,A,][E,G,_D] [E,G,D][E,G,D] | [A,,E,][A,,E,] [A,,D,] [A,,E,]2 [A,,A,] | %17
 [A,,A,][A,,A,] [A,,A,][B,,F,] [B,,A,][E,B,] |[M:5/8] [A,,A,]-[A,,A,]- [A,,A,]3 |[M:1/8] [A,,A,] | %20
[M:3/4] [A,,A,][A,,A,] [A,,A,] [C,G,]2 [C,C]/[C,C]/ | [F,CF][F,CF] [F,B,=E] [F,A,]2 [F,CF] | %22
 _D,D, E,B,, B,,B,, | E,4 z [A,,A,] | [A,,A,][A,,A,] [A,,A,][E,G,_D] [E,G,D][E,G,D] | %25
 [A,,E,][A,,E,] [A,,D,] [A,,E,]2 [A,,A,] | [A,,A,][A,,A,] [A,,A,][B,,F,] [B,,A,][E,B,] | %27
[M:5/8] [A,,A,]-[A,,A,]- [A,,A,]3 |] %28
V:3
 x6 | x6 | z3 A,,2 D, | x6 |[M:13/16] x13/2 |[M:3/4] x6 |[M:5/8] x5 |[M:1/8] x |[M:13/16] x13/2 | %9
[M:5/8] x5 |[M:1/8] x |[M:3/4] x6 | x6 | x6 | x6 | x6 | x6 | x6 |[M:5/8] x5 |[M:1/8] x | %20
[M:3/4] x6 | x6 | x6 | x6 | x6 | x6 | x6 |[M:5/8] x5 |] %28
V:4
 x6 | x6 | x6 | x6 |[M:13/16] z/ z/ z DE3/2 z [Ec] |[M:3/4] x6 |[M:5/8] x5 |[M:1/8] x | %8
[M:13/16] x13/2 |[M:5/8] x5 |[M:1/8] x |[M:3/4] x6 | x6 | x6 | x6 | x6 | x6 | x6 |[M:5/8] x5 | %19
[M:1/8] x |[M:3/4] x6 | x6 | x6 | x6 | x6 | x6 | x6 |[M:5/8] x5 |] %28

